!!!!SEGMENT: pl-kk--kk-i-35--001-005_anonim--missa-agnus-dei.krn
!!!cenid: 16xx:1338
!!!COM: Anonim
!!!COM-rismID: pe30004985
!!!CDT:
!!!CNT:
!!!OPR: Missa
!!!OTL: Agnus Dei
!!!OMV: 005
!!!PDT:
!!!AGN: Sacred; Mass
!!!SMS-siglum: PL-Kk
!!!SMS-shelfmark: Kk.I.35
!!!SMS-shelfwork: 001-005 M
!!!SMS-variant:
!!!SMS-altvar:
!!!NIFC-rismSourceID: 1001154769
!!!NIFC-islandoraID: pl-kk:21971
!!!URL-pdf-islandora: https://repozytorium.nifc.pl/islandora/object/pl-kk%3A21971/datastream/PDF/view
!!!URL-scan:
!!!ONB-nifc: UWAGA: części Mszy: 1. Kyrie, 2. Et in terra, 3. Patrem, 4. Sanctus, 5. Agnus Dei
!!!AIN: 1 alto 1 empty 1 organ 1 tenor 1 vox
!!!key:
**kern	**fba	**kern	**text	**kern	**text	**kern	**text	**kern	**text
*part5	*part5	*part4	*part4	*part3	*part3	*part2	*part2	*part1	*part1
*staff5	*staff5	*staff4	*staff4	*staff3	*staff3	*staff2	*staff2	*staff1	*staff1
*Iorgan	*	*Iempty	*	*Itenor	*	*Ialto	*	*Ivox	*
*I"[Organo]	*	*I"[Basso]	*	*I"[Tenore]	*	*I"[Alto]	*	*I"[Canto]	*
*I'org	*	*I'B	*	*I'T	*	*I'A	*	*I'S	*
*clefC4	*	*clefF4	*	*clefC4	*	*clefC3	*	*clefC1	*
*k[]	*	*k[]	*	*k[]	*	*k[]	*	*k[]	*
*C:	*	*C:	*	*C:	*	*C:	*	*C:	*
*M2/1	*	*M2/1	*	*M2/1	*	*M2/1	*	*M2/1	*
*met(C|)	*	*met(C|)	*	*met(C|)	*	*met(C|)	*	*met(C|)	*
*all\right	*	*all\right	*	*all\right	*	*all\right	*	*all\right	*
=1-	=1-	=1-	=1-	=1-	=1-	=1-	=1-	=1-	=1-
!LO:TX:b:t=Agn(us) Dei	!	!	!	!	!	!	!	!	!
1.c	.	0r	.	1.c	A-	1r	.	0r	.
.	.	.	.	.	.	1.g	A-	.	.
*2\right	*	*	*	*2\right	*	*	*	*	*
!LO:TX:t=P:problem=kreska pseudotaktowa	!	!	!	!	!	!	!	!	!
2B\	6	.	.	2B\	-gn(us)	.	.	.	.
=2-	=2-	=2-	=2-	=2-	=2-	=2-	=2-	=2-	=2-
1A	7	1r	.	1A	De-	.	.	2r	.
*	*	*	*	*	*	*2\right	*	*	*
.	-6	.	.	.	.	2f\	-gn(us)	1cc	A-
1G	.	1.G	A-	1G	-i	2e\	De-	.	.
*	*	*	*	*	*	*	*	*2\right	*
.	.	.	.	.	.	2.d\	.	2b\	-gn(us)
*clefF4	*	*	*	*	*	*	*	*	*
=3-	=3-	=3-	=3-	=3-	=3-	=3-	=3-	=3-	=3-
*	*	*	*	*custos:D	*	*	*	*	*
2G\	.	.	.	0r	.	.	.	1a	De-
.	.	.	.	.	.	4e\	.	.	.
*	*	*2\right	*	*	*	*	*	*	*
2F\	.	2F\	-gn(us)	.	.	4f\	.	.	.
.	.	.	.	.	.	4d\	.	.	.
!LO:TX:t=P:problem=kreska pseudotaktowa	!	!	!	!	!	!	!	!	!
1E	.	1E	De-	.	.	4e\	.	2g\	-i
.	.	.	.	.	.	4f\	.	.	.
.	.	.	.	.	.	1g\	.	2g\	qui
!	!	!	!	!LO:LB:g=original	!	!	!	!	!
=4-	=4-	=4-	=4-	=4-	=4-	=4-	=4-	=4-	=4-
1D	4	1D	-i	2r	.	.	.	4a\	tol-
.	.	.	.	.	.	.	.	4b\	.
!LO:TX:b:t=P:problem=# below w bc	!	!	!	!	!	!LO:TX:b:t=P:problem=# below	!	!	!
.	#3	.	.	2D/	qui	2f#\	.	4cc\	.
.	.	.	.	.	.	.	.	4a\	.
!LO:TX:t=P:problem=kreska pseudotaktowa	!	!	!	!	!	!	!	!	!
1G	.	0r	.	4G\	tol-	2.g\	.	4b\	.
.	.	.	.	4A\	.	.	.	4cc\	.
.	.	.	.	4B\	.	.	.	1dd\	.
.	.	.	.	4G\	.	4fny\	.	.	.
=5-	=5-	=5-	=5-	=5-	=5-	=5-	=5-	=5-	=5-
1A	4	.	.	2A\	.	1e	.	.	.
!LO:TX:b:t=P:problem=# below w bc	!	!	!	!	!	!	!	!LO:TX:b:t=P:problem=# below	!
.	#3	.	.	4A\	-lis	.	.	2cc#\	.
.	.	.	.	4A\	pec-	.	.	.	.
*	*	*	*	*	*	*custos:g	*	*	*
2B\	.	2r	.	4B\	-ca-	2d\	-i	1dd	-lis
!	!	!	!	!LO:TX:b:t=P:problem=# below	!	!	!	!	!
.	.	.	.	4c#X\	-ta	.	.	.	.
!LO:TX:t=P:problem=kreska pseudotaktowa	!	!	!	!LO:LB:g=original	!	!	!	!	!
2GG/	.	2GG/	qui	1d\	mun-	2g\	qui	.	.
=6-	=6-	=6-	=6-	=6-	=6-	=6-	=6-	=6-	=6-
*	*	*	*	*	*	*	*	*custos:b	*
1AA	4	2AA/	tol-	.	.	2e\	tol-	1r	.
!LO:TX:b:t=P:problem=# below w bc	!	!	!	!LO:TX:b:t=P:problem=# below	!	!	!	!	!
.	#3	4AA/	-lis	2c#X\	.	4e\	-lis	.	.
.	.	4AA/	pec-	.	.	4a\	pec-	.	.
!	!	!	!	!	!	!	!	!LO:LB:g=original	!
2BB/	.	2BB/	-ca-	2d\	-di	2.g\	-ca-	2r	.
*custos:D	*	*	*	*	*	*	*	*	*
2GG/	.	2GG/	-ta	2B\	pec-	.	.	2b\	pec-
.	.	.	.	.	.	4e\	-ta	.	.
!LO:LB:g=original	!	!	!	!	!	!	!	!	!
=7-	=7-	=7-	=7-	=7-	=7-	=7-	=7-	=7-	=7-
*	*	*lig	*	*	*	*	*	*	*
1D	6	1D	mun-	2d\	-ca-	1f	mun-	4b\	-ca-
.	5	.	.	.	.	.	.	4a\	-ta
.	.	.	.	2cny\	-ta	.	.	1a	mun-
!LO:TX:t=P:problem=kreska pseudotaktowa	!	!	!	!	!	!	!	!	!
1E	4	1E	.	1B	mun-	0e	-di	.	.
!LO:TX:b:t=P:problem=# below w bc	!	!	!	!	!	!	!	!LO:TX:b:t=P:problem=# below	!
.	#3	.	.	.	.	.	.	2g#/	.
*	*	*Xlig	*	*	*	*	*	*	*
=8-	=8-	=8-	=8-	=8-	=8-	=8-	=8-	=8-	=8-
2AA/	.	2AA/	-di	2A\	-di	.	.	1a	-di
!LO:TX:b:t=Miſerere	!	!	!	!	!	!	!	!	!
1A	.	1A	Mi-	1c	Mi-	.	.	.	.
.	.	.	.	.	.	1r	.	2r	.
!LO:TX:t=P:problem=kreska pseudotaktowa	!	!	!	!	!	!	!	!	!
2F#X\	6	2F#X\	-ſe-	2A\	-ſe-	.	.	1dd\	Mi-
=9-	=9-	=9-	=9-	=9-	=9-	=9-	=9-	=9-	=9-
1G	.	1G	-re-	1B	-re-	1r	.	.	.
.	.	.	.	.	.	.	.	1b	-ſe-
*	*	*custos:E	*	*	*	*	*	*	*
2D\	#	2D\	-re	2F#X/	-re	2r	.	.	.
*	*	*	*ij	*	*	*	*	*	*
!LO:TX:t=P:problem=kreska pseudotaktowa	!	!LO:LB:g=original	!	!	!	!	!	!	!
[<2E\	.	1E\	Mi-	2r	.	1g\	Mi-	2ccny\	-re-
=10-	=10-	=10-	=10-	=10-	=10-	=10-	=10-	=10-	=10-
*	*	*	*	*custos:e	*	*	*	*	*
2E\]	.	.	.	1r	.	.	.	0gny	-re
2BB/	6	2BB/	-ſe-	.	.	2d\	-ſe-	.	.
!LO:TX:t=P:problem=kreska pseudotaktowa	!	!	!	!LO:LB:g=original	!	!	!	!	!
1C	.	1C	-re-	2r	.	1e	-re-	.	.
.	.	.	.	1e\	Mi-	.	.	.	.
=11-	=11-	=11-	=11-	=11-	=11-	=11-	=11-	=11-	=11-
2GG/	.	2GG/	-re	.	.	2B/	-re	2r	.
*	*	*	*Xij	*	*	*	*ij	*	*ij
1AA	.	1AA	Mi-	2A\	-ſe-	1c	Mi-	2ee\	Mi-
.	.	.	.	1.c	-re-	.	.	2a\	-ſe-
!LO:TX:t=P:problem=kreska pseudotaktowa	!	!	!	!	!	!	!	!	!
2EE/	6	2EE/	-ſe-	.	.	2G/	-ſe-	2cc\	-re-
=12-	=12-	=12-	=12-	=12-	=12-	=12-	=12-	=12-	=12-
1GG	.	1GG	-re-	.	.	2.d\	-re-	1g	.
.	.	.	.	2B\	-re	.	.	.	.
.	.	.	.	.	.	4e\	.	.	.
*	*	*	*	*	*	*custos:f	*	*	*
!LO:TX:t=P:problem=kreska pseudotaktowa	!	!	!	!	!	!	!	!	!
1FF	6	1FF	-re	2c\	no-	2f\	-re	1g	-re
*	*	*	*	*	*	*	*Xij	*	*Xij
!	!	!	!	!	!	!LO:LB:g=original	!	!	!
.	.	.	.	4d\	.	1f\	no-	.	.
.	.	.	.	4c\	.	.	.	.	.
=13-	=13-	=13-	=13-	=13-	=13-	=13-	=13-	=13-	=13-
0GG	3	0GG	no-	2B\	.	.	.	0g	no-
.	4	.	.	1c	.	2e\	.	.	.
.	.	.	.	.	.	1d	.	.	.
.	3	.	.	2B\	.	.	.	.	.
=14-	=14-	=14-	=14-	=14-	=14-	=14-	=14-	=14-	=14-
0C;	.	0C;	-bis	0c;<	-bis	0e;<	-bis	0g	-bis
!LO:LB:g=original	!	!	!	!	!	!	!	!LO:LB:g=original	!
=15-	=15-	=15-	=15-	=15-	=15-	=15-	=15-	=15-	=15-
!LO:N:xstem	!	!LO:N:xstem	!	!LO:N:xstem	!	!LO:N:xstem	!	!LO:N:xstem	!
!LO:TX:b:t=Dona nobis.	!	!	!	!	!	!	!	!	!
4FF	.	4FF	Dona	4c	dona	4f	Dona	4a	dona
!LO:N:xstem	!	!LO:N:xstem	!	!LO:N:xstem	!	!LO:N:xstem	!	!LO:N:xstem	!
4FF	.	4FF	nobis	4c	nobis	4f	nobis	4a	nobis
!LO:N:xstem	!	!LO:N:xstem	!	!LO:N:xstem	!	!LO:N:xstem	!	!LO:N:xstem	!
4FF	.	4FF	pa-	4c	pa-	4f	pa-	4a	pa-
0C;	.	0C;	-cem	0c;<	-cem	0e;<	-cem	0g;<	-cem
==	==	==	==	==	==	==	==	==	==
*-	*-	*-	*-	*-	*-	*-	*-	*-	*-
!!!system-decoration: [(s1,s2,s3,s4)]s5
!!!RDF**kern: < = below
!!!ENC: Andrzej Kubiczek
!!!END: 2021-07-29
!!!ENC: Anastazja Marusiak
!!!END: 2021-07-06
